packages/foundations/assets/icons/functional/images/environment/cloud_14_filled.svg

<svg width="14" height="14" viewBox="0 0 14 14" fill="none" xmlns="http://www.w3.org/2000/svg">
<g clip-path="url(#clip0_2206_3105)">
<rect width="14" height="14" fill="white"/>
<path fill-rule="evenodd" clip-rule="evenodd" d="M5.72774 4.04043L5.60002 4.2L5.45747 4.2036C4.41772 4.2561 3.5076 4.87984 3.07112 5.79621L3.04782 5.8478L2.99609 5.87132C2.03824 6.32732 1.40002 7.30141 1.40002 8.4C1.40002 9.9464 2.65363 11.2 4.20002 11.2L9.94363 11.1961C11.4405 11.1097 12.6 9.88524 12.6 8.4L12.5952 8.23404C12.5596 7.62876 12.3302 7.06164 11.951 6.60735L11.8909 6.5401C11.897 6.42655 11.9 6.34652 11.9 6.3C11.9 4.36701 10.333 2.8 8.40002 2.8C7.41398 2.84643 6.34602 3.30806 5.72774 4.04043Z" fill="#282D37"/>
</g>
<defs>
<clipPath id="clip0_2206_3105">
<rect width="14" height="14" fill="white"/>
</clipPath>
</defs>
</svg>

<svg xmlns="http://www.w3.org/2000/svg" width="14" height="14" fill="none"><g clip-path="url(#a)"><path fill="#fff" d="M0 0h14v14H0z"/><path fill="#282D37" fill-rule="evenodd" d="M5.728 4.04 5.6 4.2l-.143.004a2.8 2.8 0 0 0-2.386 1.592l-.023.052-.052.023A2.801 2.801 0 0 0 4.2 11.2l5.744-.004A2.804 2.804 0 0 0 12.6 8.4l-.005-.166a2.8 2.8 0 0 0-.644-1.627l-.06-.067q.009-.17.009-.24a3.5 3.5 0 0 0-3.5-3.5c-.986.046-2.054.508-2.672 1.24" clip-rule="evenodd"/></g><defs><clipPath id="a"><path fill="#fff" d="M0 0h14v14H0z"/></clipPath></defs></svg>
